svgs/sharp-thin/objects-column.svg

<svg xmlns="http://www.w3.org/2000/svg" viewBox="0 0 448 512"><!--! Font Awesome Pro 6.6.0 by @fontawesome - https://fontawesome.com License - https://fontawesome.com/license (Commercial License) Copyright 2024 Fonticons, Inc. --><path d="M16 48l0 224 160 0 0-224L16 48zM0 32l16 0 160 0 16 0 0 16 0 224 0 16-16 0L16 288 0 288l0-16L0 48 0 32zM272 240l0 224 160 0 0-224-160 0zm-16-16l16 0 160 0 16 0 0 16 0 224 0 16-16 0-160 0-16 0 0-16 0-224 0-16zM176 336L16 336l0 128 160 0 0-128zM16 320l160 0 16 0 0 16 0 128 0 16-16 0L16 480 0 480l0-16L0 336l0-16 16 0zM272 48l0 128 160 0 0-128L272 48zM256 32l16 0 160 0 16 0 0 16 0 128 0 16-16 0-160 0-16 0 0-16 0-128 0-16z"/></svg>

<svg xmlns="http://www.w3.org/2000/svg" viewBox="0 0 448 512"><!--! Font Awesome Pro 6.5.2 by @fontawesome - https://fontawesome.com License - https://fontawesome.com/license (Commercial License) Copyright 2024 Fonticons, Inc. --><path d="M16 48V272H176V48H16zM0 32H16 176h16V48 272v16H176 16 0V272 48 32zM272 240V464H432V240H272zm-16-16h16H432h16v16V464v16H432 272 256V464 240 224zM176 336H16V464H176V336zM16 320H176h16v16V464v16H176 16 0V464 336 320H16zM272 48V176H432V48H272zM256 32h16H432h16V48 176v16H432 272 256V176 48 32z"/></svg>
